X:2105
L:1/8
M:6/8
K:Ador
|: eAA efg | eAA edB | eAA efg | edB dgf | eAA efg | eAA edB | GBd g2 e |1 fdB ABd :|2 fdc BcA ||

